icon/lg/ros.svg

<?xml version="1.0" encoding="UTF-8"?>
<svg viewBox="0 0 387 103" version="1.1" xmlns="http://www.w3.org/2000/svg" preserveAspectRatio="xMidYMid" height="1em" width="1em">
  <g>
    <path d="M260.5625,0.894531 C285.46875,0.894531 301.203125,21.96875 301.203125,51.949219 C301.203125,81.929688 285.46875,103 260.5625,103 C235.796875,103 220.058594,81.929688 220.058594,51.949219 C220.058594,21.96875 235.796875,0.894531 260.5625,0.894531 Z M351.566406,0.894531 C364.566406,0.894531 374.417969,5.847656 382.902344,14.332031 L372.777344,24.9375 C366.753906,18.574219 359.914062,15.460938 350.472656,15.460938 C339.25,15.460938 334.460938,21.117188 334.460938,27.765625 L334.466476,28.1855189 C334.47019,28.3240408 334.475793,28.4611348 334.483354,28.5968454 L334.51197,28.9998711 C334.52928,29.1993532 334.55114,29.3958227 334.577775,29.5894294 L334.637478,29.9728704 C334.681613,30.2260124 334.734501,30.474243 334.796674,30.7179179 L334.896963,31.0800579 C335.27281,32.3359003 335.911865,33.4710771 336.890886,34.5370542 L337.179924,34.8397806 L337.179924,34.8397806 L337.48786,35.1390077 L337.48786,35.1390077 L337.815094,35.4350024 L337.815094,35.4350024 L338.162023,35.7280314 C338.578417,36.0682722 339.035834,36.4030027 339.537117,36.7341289 L339.977597,37.0171132 C340.128049,37.1111767 340.282147,37.2049904 340.43996,37.2985988 L340.924604,37.5788526 L340.924604,37.5788526 L341.431927,37.8581413 L341.431927,37.8581413 L341.962326,38.1367317 L341.962326,38.1367317 L342.5162,38.4148904 L342.5162,38.4148904 L343.093946,38.6928843 L343.093946,38.6928843 L343.695962,38.9709801 C343.798343,39.0173528 343.901751,39.0637407 344.006196,39.1101496 L344.645363,39.3888984 L344.645363,39.3888984 L345.309795,39.668416 L345.309795,39.668416 L345.99989,39.9489691 L345.99989,39.9489691 L346.716045,40.2308245 L346.716045,40.2308245 L347.458658,40.5142489 L347.458658,40.5142489 L348.228127,40.799509 L348.228127,40.799509 L349.02485,41.0868717 L349.02485,41.0868717 L349.849225,41.3766037 L349.849225,41.3766037 L351.138504,41.8162275 L351.138504,41.8162275 L352.033749,42.1130496 L352.033749,42.1130496 L352.958037,42.4131747 L352.958037,42.4131747 L354.399798,42.8701387 L354.399798,42.8701387 L355.398438,43.179688 L355.398438,43.179688 L356.522834,43.5365992 L356.522834,43.5365992 L357.629934,43.8947217 L357.629934,43.8947217 L358.719515,44.2545917 L358.719515,44.2545917 L359.791354,44.6167454 L359.791354,44.6167454 L360.845227,44.9817192 L360.845227,44.9817192 L361.880911,45.3500492 C362.223082,45.4734448 362.562185,45.5974892 362.898181,45.7222716 L363.896816,46.0989229 L363.896816,46.0989229 L364.87659,46.4805391 L364.87659,46.4805391 L365.837281,46.8676566 C367.422406,47.5177347 368.927086,48.192969 370.346664,48.9045315 L371.188162,49.3359178 C380.60855,54.2763938 386.050781,60.9999999 386.050781,73.019531 C386.050781,90.839844 375.101562,103 350.609375,103 C336.648438,103 324.609375,96.777344 316.535156,87.019531 L326.796875,76.695312 C333.230469,83.910156 342.671875,88.433594 351.703125,88.433594 C365.113281,88.433594 371.542969,83.625 371.542969,74.007812 C371.542969,69.4093582 369.509092,66.1960932 364.394885,63.2865967 L363.8351,62.9759781 L363.8351,62.9759781 L363.251455,62.6673886 C363.152176,62.6161097 363.051892,62.564903 362.950595,62.5137624 L362.330624,62.2076625 L362.330624,62.2076625 L361.686077,61.9028529 C361.576589,61.8521424 361.466065,61.8014733 361.354499,61.7508395 L360.672553,61.447411 C360.556796,61.3968937 360.439985,61.3463994 360.322115,61.295922 L359.602127,60.9932095 C359.479993,60.9427747 359.356788,60.8923443 359.232506,60.8419123 L358.473832,60.5392509 C358.345216,60.4887876 358.215509,60.4383103 358.084708,60.3878129 L357.286704,60.0845375 L357.286704,60.0845375 L356.462124,59.7804834 L356.462124,59.7804834 L355.610681,59.4753548 L355.610681,59.4753548 L354.732088,59.1688563 L354.732088,59.1688563 L353.82606,58.8606922 L353.82606,58.8606922 L352.89231,58.550567 L352.89231,58.550567 L351.439084,58.0810556 L351.439084,58.0810556 L350.43478,57.7647345 L350.43478,57.7647345 L348.719511,57.2331881 L348.719511,57.2331881 L347.542391,56.8626344 L347.542391,56.8626344 L346.390477,56.4931634 L346.390477,56.4931634 L345.26373,56.1241304 L345.26373,56.1241304 L344.162109,55.7548907 L344.162109,55.7548907 L343.085576,55.3847998 C342.908242,55.3230112 342.731952,55.2611603 342.556705,55.1992337 L341.517729,54.8266572 C341.175571,54.7020904 340.837578,54.5771132 340.503743,54.451618 L339.514706,54.0734713 C339.351943,54.0101521 339.190219,53.9466765 339.029531,53.8830312 L338.077845,53.4990147 C337.76476,53.3702585 337.455817,53.2407158 337.15101,53.1102792 L336.248987,52.7161801 L336.248987,52.7161801 L335.371736,52.3160727 C324.993206,47.4761562 319.957031,41.199219 319.957031,28.472656 C319.957031,11.359375 333.914062,0.894531 351.566406,0.894531 Z M10.921875,79.121094 C16.949219,79.121094 21.839844,84.175781 21.839844,90.40625 C21.839844,96.636719 16.949219,101.691406 10.921875,101.691406 C4.890625,101.691406 0,96.636719 0,90.40625 C0,84.175781 4.890625,79.121094 10.921875,79.121094 Z M87.132812,79.121094 C93.164062,79.121094 98.054688,84.175781 98.054688,90.40625 C98.054688,96.636719 93.164062,101.691406 87.132812,101.691406 C81.101562,101.691406 76.214844,96.636719 76.214844,90.40625 C76.214844,84.175781 81.101562,79.121094 87.132812,79.121094 Z M49.027344,79.121094 C55.058594,79.121094 59.945312,84.175781 59.945312,90.40625 C59.945312,96.636719 55.058594,101.691406 49.027344,101.691406 C42.996094,101.691406 38.105469,96.636719 38.105469,90.40625 C38.105469,84.175781 42.996094,79.121094 49.027344,79.121094 Z M171.613281,2.449219 C188.308594,2.449219 202.402344,11.644531 202.402344,32.007812 C202.402344,47.847656 194.328125,57.605469 181.328125,61 L200.894531,101.445312 L184.339844,101.445312 L165.316406,62.273438 L143.695312,62.273438 L143.695312,101.445312 L129.601562,101.445312 L129.601562,2.449219 L171.613281,2.449219 Z M260.5625,15.746094 C243.867188,15.746094 234.699219,29.746094 234.699219,51.949219 C234.699219,74.152344 243.867188,88.152344 260.5625,88.152344 C277.394531,88.152344 286.5625,74.152344 286.5625,51.949219 C286.5625,29.746094 277.394531,15.746094 260.5625,15.746094 Z M10.921875,40.664062 C16.949219,40.664062 21.839844,45.714844 21.839844,51.949219 C21.839844,58.179688 16.949219,63.234375 10.921875,63.234375 C4.890625,63.234375 0,58.179688 0,51.949219 C0,45.714844 4.890625,40.664062 10.921875,40.664062 Z M49.027344,40.664062 C55.058594,40.664062 59.945312,45.714844 59.945312,51.949219 C59.945312,58.179688 55.058594,63.234375 49.027344,63.234375 C42.996094,63.234375 38.105469,58.179688 38.105469,51.949219 C38.105469,45.714844 42.996094,40.664062 49.027344,40.664062 Z M87.132812,40.664062 C93.164062,40.664062 98.054688,45.714844 98.054688,51.949219 C98.054688,58.179688 93.164062,63.234375 87.132812,63.234375 C81.101562,63.234375 76.214844,58.179688 76.214844,51.949219 C76.214844,45.714844 81.101562,40.664062 87.132812,40.664062 Z M171.613281,16.453125 L143.695312,16.453125 L143.695312,48.269531 L171.613281,48.269531 C181.191406,48.269531 187.894531,43.179688 187.894531,32.433594 C187.894531,22.109375 181.328125,16.453125 171.613281,16.453125 Z M10.921875,2.207031 C16.949219,2.207031 21.839844,7.257812 21.839844,13.492188 C21.839844,19.722656 16.949219,24.777344 10.921875,24.777344 C4.890625,24.777344 0,19.722656 0,13.492188 C0,7.257812 4.890625,2.207031 10.921875,2.207031 Z M49.027344,2.207031 C55.058594,2.207031 59.945312,7.257812 59.945312,13.492188 C59.945312,19.722656 55.058594,24.777344 49.027344,24.777344 C42.996094,24.777344 38.105469,19.722656 38.105469,13.492188 C38.105469,7.257812 42.996094,2.207031 49.027344,2.207031 Z M87.132812,2.207031 C93.164062,2.207031 98.054688,7.257812 98.054688,13.492188 C98.054688,19.722656 93.164062,24.777344 87.132812,24.777344 C81.101562,24.777344 76.214844,19.722656 76.214844,13.492188 C76.214844,7.257812 81.101562,2.207031 87.132812,2.207031 Z" fill="#232E4A"/>
  </g>
</svg>

<svg width="387" height="103" xmlns="http://www.w3.org/2000/svg" preserveAspectRatio="xMidYMid"><path d="M260.563.895c24.906 0 40.64 21.074 40.64 51.054S285.47 103 260.563 103c-24.766 0-40.504-21.07-40.504-51.05 0-29.981 15.738-51.055 40.504-51.055Zm91.003 0c13 0 22.852 4.953 31.336 13.437l-10.125 10.605c-6.023-6.363-12.863-9.476-22.304-9.476-11.223 0-16.012 5.656-16.012 12.305l.005.42c.004.138.01.275.017.41l.029.404c.017.2.04.396.066.59l.06.383c.044.253.097.501.159.745l.1.362c.376 1.256 1.015 2.391 1.994 3.457l.289.303.308.299.327.296.347.293c.416.34.874.675 1.375 1.006l.44.283c.151.094.305.188.463.282l.485.28.507.28.53.278.554.278.578.278.602.278.31.14.64.278.664.28.69.28.716.282.743.283.77.286.796.287.824.29 1.29.44.895.296.924.3 1.442.457.998.31 1.125.357 1.107.358 1.09.36 1.071.362 1.054.365 1.036.368c.342.123.681.247 1.017.372l.999.377.98.382.96.387a65.72 65.72 0 0 1 4.51 2.037l.841.43c9.42 4.941 14.863 11.665 14.863 23.685 0 17.82-10.95 29.98-35.442 29.98-13.96 0-26-6.223-34.074-15.98l10.262-10.325c6.433 7.215 15.875 11.739 24.906 11.739 13.41 0 19.84-4.809 19.84-14.426 0-4.599-2.034-7.812-7.148-10.721l-.56-.311-.584-.309-.3-.153-.62-.306-.645-.305c-.11-.05-.22-.102-.332-.152l-.681-.304-.35-.151-.72-.303-.37-.151-.76-.303a76.4 76.4 0 0 0-.388-.151l-.798-.303-.825-.305-.851-.305-.879-.306-.906-.308-.934-.31-1.453-.47-1.004-.316-1.715-.532-1.178-.37-1.152-.37-1.126-.369-1.102-.37-1.076-.37c-.178-.061-.354-.123-.53-.185l-1.038-.372c-.342-.125-.68-.25-1.014-.375l-.99-.379a85.29 85.29 0 0 1-.484-.19l-.952-.384a70.865 70.865 0 0 1-.927-.389l-.902-.394-.877-.4c-10.379-4.84-15.415-11.117-15.415-23.843 0-17.114 13.957-27.578 31.61-27.578ZM10.922 79.12c6.027 0 10.918 5.055 10.918 11.285s-4.89 11.285-10.918 11.285C4.89 101.691 0 96.637 0 90.406c0-6.23 4.89-11.285 10.922-11.285Zm76.21 0c6.032 0 10.923 5.055 10.923 11.285s-4.89 11.285-10.922 11.285c-6.031 0-10.918-5.054-10.918-11.285 0-6.23 4.887-11.285 10.918-11.285Zm-38.105 0c6.032 0 10.918 5.055 10.918 11.285s-4.886 11.285-10.918 11.285c-6.03 0-10.922-5.054-10.922-11.285 0-6.23 4.891-11.285 10.922-11.285ZM171.613 2.45c16.696 0 30.79 9.196 30.79 29.559 0 15.84-8.075 25.597-21.075 28.992l19.567 40.445H184.34l-19.024-39.172h-21.62v39.172h-14.094V2.45h42.011Zm88.95 13.297c-16.696 0-25.864 14-25.864 36.203 0 22.203 9.168 36.203 25.863 36.203 16.833 0 26-14 26-36.203 0-22.203-9.167-36.203-26-36.203ZM10.922 40.664c6.027 0 10.918 5.05 10.918 11.285 0 6.23-4.89 11.285-10.918 11.285C4.89 63.234 0 58.18 0 51.95c0-6.234 4.89-11.285 10.922-11.285Zm38.105 0c6.032 0 10.918 5.05 10.918 11.285 0 6.23-4.886 11.285-10.918 11.285-6.03 0-10.922-5.054-10.922-11.285 0-6.234 4.891-11.285 10.922-11.285Zm38.106 0c6.031 0 10.922 5.05 10.922 11.285 0 6.23-4.89 11.285-10.922 11.285-6.031 0-10.918-5.054-10.918-11.285 0-6.234 4.887-11.285 10.918-11.285Zm84.48-24.21h-27.918V48.27h27.918c9.578 0 16.282-5.09 16.282-15.836 0-10.325-6.567-15.98-16.282-15.98ZM10.922 2.206c6.027 0 10.918 5.05 10.918 11.285 0 6.23-4.89 11.285-10.918 11.285C4.89 24.777 0 19.723 0 13.492 0 7.258 4.89 2.207 10.922 2.207Zm38.105 0c6.032 0 10.918 5.05 10.918 11.285 0 6.23-4.886 11.285-10.918 11.285-6.03 0-10.922-5.054-10.922-11.285 0-6.234 4.891-11.285 10.922-11.285Zm38.106 0c6.031 0 10.922 5.05 10.922 11.285 0 6.23-4.89 11.285-10.922 11.285-6.031 0-10.918-5.054-10.918-11.285 0-6.234 4.887-11.285 10.918-11.285Z" fill="#232E4A"/></svg>
